dist/assets/images/product-icons/meter.svg

<svg width="81" height="103" viewBox="0 0 81 103" fill="none" xmlns="http://www.w3.org/2000/svg">
<path opacity="0.6" fill-rule="evenodd" clip-rule="evenodd" d="M21.3736 0.21584C19.9394 0.489554 17.696 1.63392 16.5386 2.68229C14.2194 4.78304 13.1042 7.27505 12.9328 10.7393L12.8236 12.945L9.77793 15.9721C6.98957 18.7439 6.66357 19.144 5.91949 20.7102C4.56816 23.554 4.49445 24.2755 4.49445 34.6632V43.8028L3.59356 44.057C2.50471 44.3641 1.04511 45.6099 0.441056 46.7476L0 47.5784V62.9801V78.3819L0.51037 79.381C1.11103 80.5574 2.39085 81.6112 3.62093 81.9426C4.47687 82.1733 4.49445 82.195 4.49445 83.0242C4.49445 85.5927 5.78346 89.1695 7.42324 91.1513C8.75379 92.7594 16.665 100.081 18.0289 100.966C18.7564 101.438 20.0762 102.072 20.9619 102.375L22.5721 102.925L39.7345 102.982C54.3385 103.03 57.1345 102.993 58.4896 102.736C60.1845 102.414 62.0716 101.62 63.4676 100.641C64.8188 99.6944 72.925 91.9668 73.7937 90.7977C75.344 88.7112 76.4057 85.6515 76.4057 83.2699C76.4057 82.2224 76.4498 82.0946 76.8118 82.0946C77.469 82.0946 79.1053 81.1615 79.7064 80.444C80.9285 78.9853 80.9908 78.6371 80.9956 73.2337C81.0004 67.8824 80.9453 67.5839 79.9044 67.3207C79.3225 67.1735 78.3149 67.6246 78.1277 68.116C78.0596 68.2952 78.0037 70.5265 78.0037 73.0745V77.7071L77.3245 78.3914C76.6562 79.0648 76.6176 79.0757 74.9075 79.0757C73.1956 79.0757 73.1595 79.0654 72.4867 78.3876L71.8038 77.6995L71.8575 62.874L71.9112 48.0484L72.5636 47.4613C73.1755 46.9104 73.3209 46.874 74.9075 46.874C76.4942 46.874 76.6396 46.9105 77.2514 47.4611L77.9038 48.048L78.0037 55.7307L78.1036 63.4134L78.5752 63.798C79.1862 64.2961 79.8177 64.2853 80.4736 63.7652L81 63.3482L80.9912 55.6645C80.9816 47.2892 80.965 47.1465 79.8259 45.6975C79.2002 44.9015 77.4622 43.8551 76.766 43.8551C76.4238 43.8551 76.4057 43.3789 76.4057 34.4281C76.4057 25.7479 76.3749 24.8797 76.0172 23.4701C75.1962 20.2366 74.0194 18.4895 70.43 15.1755L68.032 12.9617L68.021 11.2509C67.9995 7.86454 67.0177 5.37314 64.8405 3.1798C64.0525 2.38563 63.0134 1.58984 62.2727 1.21309C59.8004 -0.0441881 60.3185 -0.015609 40.4501 0.00592582C30.0058 0.0171964 21.9507 0.105751 21.3736 0.21584ZM58.8675 3.22549C61.2837 3.74212 63.2048 5.28861 64.2858 7.5878L64.9199 8.93645V27.7543V46.5721L64.2858 47.9208C63.1758 50.2814 61.2268 51.8152 58.7209 52.3C57.8652 52.4656 52.5156 52.5135 39.7509 52.4697C22.0242 52.4089 21.9699 52.4075 20.9136 51.9711C18.8653 51.125 17.2479 49.4942 16.4179 47.4382C16.0088 46.4246 15.9839 46.0012 15.9205 39.0249C15.8558 31.8771 15.8428 31.6666 15.4329 31.226C14.8658 30.6162 13.9979 30.639 13.3615 31.2802L12.8581 31.7873L12.9256 39.3809L12.9932 46.9747L13.5225 48.3591C14.9 51.9625 18.0255 54.666 21.5602 55.3117C22.3492 55.4558 28.7247 55.5272 40.6366 55.5252C60.288 55.522 59.8076 55.5493 62.2727 54.2955C63.8987 53.4685 65.9718 51.3798 66.7925 49.7416C68.0154 47.3009 68.0098 47.3826 68.013 31.6286C68.0146 23.7418 68.0903 17.2888 68.1812 17.2888C68.4539 17.2888 71.3126 20.3473 71.8493 21.2133C72.1236 21.6561 72.564 22.5618 72.8277 23.2259L73.3071 24.4335L73.3688 34.1443C73.4283 43.4935 73.4168 43.8551 73.0596 43.8551C72.3541 43.8551 70.619 44.8962 69.9892 45.6975C68.7945 47.2172 68.833 46.6416 68.8282 63.0755C68.8234 79.7793 68.7531 78.8261 70.1087 80.444C70.7211 81.175 72.3499 82.0946 73.0324 82.0946C73.4511 82.0946 73.4633 82.1507 73.3455 83.5537C73.1992 85.2928 72.6361 87.0387 71.7952 88.3592C71.2526 89.2109 68.1646 92.2763 63.36 96.7326C61.5185 98.4407 59.615 99.4686 57.6928 99.793C56.7266 99.9562 51.481 100.006 39.651 99.9647L22.9716 99.9061L21.6175 99.3754C19.6258 98.5951 19.1408 98.2145 14.2516 93.5968C9.61833 89.2208 8.87225 88.3097 8.09381 86.0785C7.87887 85.4621 7.67752 84.3475 7.64676 83.6018L7.59063 82.2461L8.56642 81.9551C9.82008 81.5812 11.4916 79.9459 11.8422 78.7504C12.0234 78.1324 12.0851 74.0896 12.0851 62.8235V47.725L11.5272 46.649C10.8762 45.3936 9.62212 44.346 8.36427 44.0071L7.49075 43.7716L7.49235 35.0083C7.49315 29.8651 7.58044 25.7045 7.70329 24.9366C8.05606 22.7349 9.09058 20.8786 11.0641 18.9069L12.7842 17.1881L12.8841 21.9177C12.939 24.519 13.0563 26.7937 13.1448 26.9724C13.5359 27.7627 14.7606 27.8777 15.5308 27.1962C15.853 26.911 15.8804 26.2446 15.8804 18.694C15.8804 14.0034 15.9669 10.0373 16.0829 9.41666C16.49 7.23842 17.9033 5.20347 19.7804 4.09352C21.6033 3.01537 21.3862 3.02684 40.2905 3.01255C52.5475 3.0033 58.1268 3.0673 58.8675 3.22549ZM25.5141 6.21883C23.1466 6.57627 20.8606 8.29765 19.7636 10.5491L19.1763 11.7541L19.1138 27.1505C19.0699 37.9759 19.1178 42.8567 19.275 43.5901C19.75 45.8055 21.6601 47.9343 24.0703 48.9341L25.1689 49.3898H40.3502C54.3984 49.3898 55.6076 49.363 56.5512 49.0311C58.836 48.2275 60.5498 46.5784 61.4595 44.3084L61.9235 43.1507V27.7543V12.3579L61.4573 11.1942C60.5794 9.00287 59.0611 7.47309 56.8862 6.58855L55.7312 6.11881L41.1492 6.08942C33.1291 6.07312 26.0934 6.13148 25.5141 6.21883ZM56.1307 9.62074C56.5702 9.82622 57.2174 10.2996 57.5687 10.6729C58.7033 11.8779 58.8274 12.4515 58.8274 16.4952V20.1422L57.3792 18.8811C53.5737 15.5674 49.4707 13.6202 44.4451 12.7431C41.5279 12.2339 37.2818 12.4376 34.2004 13.2346C30.2982 14.2437 26.226 16.4264 23.5639 18.9353C22.8806 19.5795 22.2655 20.1064 22.1972 20.1064C22.1287 20.1064 22.0728 18.4734 22.0728 16.4773C22.0728 12.4722 22.1626 12.0508 23.2944 10.7518C24.6779 9.16428 23.7333 9.2472 40.4501 9.2472C54.5265 9.2472 55.3748 9.26732 56.1307 9.62074ZM39.0116 16.7443C39.0612 17.6854 39.1595 17.9485 39.5879 18.2882C40.1784 18.7563 40.4353 18.7875 41.1178 18.4742C41.7413 18.188 42.0481 17.4993 42.0481 16.3863V15.5028L42.7972 15.604C43.9447 15.7594 46.7103 16.301 46.8731 16.4024C46.9528 16.4519 46.8885 16.8045 46.7303 17.1861C46.0889 18.7324 46.5797 19.9722 47.8329 19.9722C48.6078 19.9722 48.9973 19.6165 49.5119 18.4392L49.9383 17.4632L51.7251 18.5503C52.7079 19.1482 53.5417 19.7274 53.5781 19.8375C53.6146 19.9476 53.3723 20.3825 53.0397 20.8042C52.3342 21.6988 52.2593 22.5455 52.8348 23.1253C53.5077 23.8033 54.4272 23.656 55.3287 22.7258C56.2324 21.7934 56.1798 21.7712 57.8572 23.7899L58.8274 24.9576V33.809C58.8274 43.5639 58.8358 43.4902 57.5687 44.8357C57.2174 45.209 56.5702 45.6824 56.1307 45.8878C55.3748 46.2413 54.5265 46.2614 40.4501 46.2614C23.7333 46.2614 24.6779 46.3443 23.2944 44.7568C22.053 43.332 22.0728 43.5075 22.0728 33.8674V25.0745L22.858 24.0495C23.2898 23.486 23.9111 22.7665 24.2385 22.4507L24.8337 21.8769L25.5738 22.7023C26.1629 23.3592 26.4521 23.5278 26.9899 23.5278C28.4922 23.5278 28.9243 22.057 27.8308 20.6659L27.1966 19.8593L27.681 19.4839C28.2643 19.0319 30.747 17.6913 31.0007 17.6913C31.1 17.6913 31.3006 18.031 31.4464 18.446C31.7776 19.3881 32.0207 19.6986 32.6016 19.921C33.2132 20.1555 33.9535 19.8504 34.3855 19.1858C34.7169 18.6762 34.7169 18.6012 34.3865 17.6637C34.1954 17.1213 34.0897 16.5948 34.1518 16.4936C34.3118 16.2325 38.1799 15.4561 38.7522 15.57C38.862 15.5919 38.9787 16.1204 39.0116 16.7443ZM39.5512 23.6431C39.1798 23.9255 39.1447 24.2465 39.0518 28.1995L38.9519 32.4521L38.053 32.9301C33.6431 35.275 33.6888 41.2882 38.1325 43.3731C39.2709 43.907 40.9802 44.0127 42.2554 43.6277C43.5231 43.2451 44.8716 42.0611 45.5402 40.744C47.0098 37.8489 45.7743 34.2164 42.8715 32.8975L42.0701 32.5334L42.0091 28.3144C41.9492 24.1578 41.9412 24.0895 41.4766 23.711C40.9143 23.2525 40.1025 23.2239 39.5512 23.6431ZM41.953 35.89C43.0902 36.6407 43.4893 38.4153 42.7696 39.5218C41.2774 41.8163 37.8547 40.8396 37.8547 38.1192C37.8547 35.9887 40.1836 34.7219 41.953 35.89ZM8.40962 47.5583L9.08878 48.2426V62.8674C9.08878 73.2421 9.02386 77.6198 8.86565 77.9317C8.39124 78.8664 7.89605 79.0664 6.04574 79.0712C4.39737 79.0755 4.26493 79.0433 3.6487 78.4884L2.9963 77.9013L2.94496 63.2429C2.89443 48.8582 2.90102 48.5725 3.29573 47.9236C3.81869 47.0642 4.26653 46.9022 6.16239 46.8867C7.68631 46.8744 7.74963 46.8933 8.40962 47.5583ZM18.2221 57.5911C17.695 57.9912 15.4809 62.9058 15.4809 63.676C15.4809 64.5958 16.2298 65.1887 17.3915 65.1887H18.2495L17.6684 66.7932C17.0857 68.4018 17.0813 68.8104 17.6396 69.4655C18.0411 69.9366 19.31 69.9334 19.7348 69.4605C20.2238 68.9161 22.0873 63.6543 21.9397 63.2353C21.6718 62.4761 21.2226 62.1698 20.3772 62.1698C19.9182 62.1698 19.4913 62.1183 19.4288 62.0553C19.3663 61.9921 19.623 61.269 19.9993 60.4482C20.7462 58.8198 20.7482 58.1591 20.0079 57.6368C19.4931 57.2735 18.6684 57.2524 18.2221 57.5911ZM61.7689 57.5911C61.3145 57.9365 59.0313 62.9495 59.0289 63.6066C59.0259 64.5044 59.6218 65.0267 60.7768 65.1386L61.8019 65.2378L61.3133 66.5454C60.7462 68.0637 60.7033 68.748 61.1359 69.3703C61.5322 69.9405 62.8031 69.9928 63.2827 69.4589C63.8098 68.8718 65.6432 63.7738 65.4991 63.2957C65.2562 62.4902 64.7982 62.1698 63.8901 62.1698C62.8336 62.1698 62.8172 62.0523 63.6304 60.3015C64.302 58.8557 64.2818 58.1502 63.5541 57.6368C63.0394 57.2735 62.2144 57.2524 61.7689 57.5911ZM36.8395 58.6355C25.5948 60.9975 19.0273 72.3049 22.513 83.3021C23.821 87.429 26.9665 91.4387 30.625 93.6429C32.5063 94.7762 35.4944 95.8632 37.6535 96.1995C39.6682 96.5135 43.3477 96.3253 45.2837 95.8093C52.0607 94.0034 57.4441 88.3522 58.9718 81.4397C59.4626 79.2192 59.4126 75.2056 58.8667 72.9827C57.1674 66.0632 52.1031 60.8073 45.338 58.942C43.3065 58.3819 38.8175 58.2199 36.8395 58.6355ZM44.545 61.8736C47.3154 62.6218 50.7959 64.8051 52.4634 66.8407C54.1761 68.9315 55.2865 71.1402 55.9333 73.7423C56.3862 75.5647 56.3964 79.0749 55.9543 80.951C55.6159 82.386 54.8733 84.3084 54.6571 84.3084C54.588 84.3084 49.7722 79.5128 43.9555 73.6515L33.3798 62.9946L34.2683 62.6148C35.0993 62.2594 37.118 61.6854 38.2528 61.4817C39.2555 61.3018 43.3786 61.5586 44.545 61.8736ZM42.0283 75.9362L53.0937 87.0862L52.3526 87.9975C51.9451 88.4987 51.2925 89.1538 50.9026 89.4535L50.1936 89.9983L39.0318 78.7537L27.87 67.5088L29.2107 66.1475C29.9482 65.3988 30.6442 64.7862 30.7574 64.7862C30.8705 64.7862 35.9424 69.8038 42.0283 75.9362ZM36.9446 81.0784L47.5203 91.7354L46.532 92.1683C45.1419 92.7775 42.2027 93.3607 40.5499 93.3555C34.0616 93.3352 28.1498 89.3208 25.7342 83.2951C24.316 79.7571 24.292 75.2807 25.6719 71.565C25.9054 70.9361 26.1577 70.4215 26.2326 70.4215C26.3075 70.4215 31.128 75.2171 36.9446 81.0784Z" fill="#231F20"/>
</svg>

<svg width="81" height="103" fill="none" xmlns="http://www.w3.org/2000/svg"><path opacity=".6" fill-rule="evenodd" clip-rule="evenodd" d="M21.374.216c-1.435.274-3.678 1.418-4.835 2.466-2.32 2.101-3.435 4.593-3.606 8.057l-.11 2.206-3.045 3.027c-2.788 2.772-3.114 3.172-3.859 4.738-1.35 2.844-1.425 3.566-1.425 13.953v9.14l-.9.254c-1.09.307-2.549 1.553-3.153 2.69L0 47.579v30.804l.51.999c.601 1.176 1.88 2.23 3.11 2.562.857.23.874.252.874 1.081 0 2.569 1.29 6.145 2.93 8.127 1.33 1.608 9.241 8.93 10.605 9.815.727.472 2.047 1.106 2.933 1.409l1.61.55 17.162.057c14.605.048 17.4.011 18.756-.246 1.694-.322 3.582-1.116 4.978-2.095 1.35-.947 9.457-8.674 10.326-9.843 1.55-2.087 2.612-5.147 2.612-7.528 0-1.048.044-1.175.406-1.175.657 0 2.293-.933 2.894-1.651 1.222-1.459 1.285-1.807 1.29-7.21.004-5.352-.05-5.65-1.092-5.913-.581-.147-1.59.304-1.776.795-.068.18-.124 2.41-.124 4.959v4.632l-.68.684c-.668.674-.706.685-2.416.685-1.712 0-1.749-.01-2.421-.688l-.683-.689.053-14.825.054-14.826.653-.587c.612-.55.757-.587 2.344-.587 1.586 0 1.732.036 2.343.587l.653.587.1 7.683.1 7.682.471.385c.611.498 1.243.487 1.899-.033l.526-.417-.009-7.684c-.01-8.375-.026-8.517-1.165-9.967-.626-.796-2.364-1.842-3.06-1.842-.342 0-.36-.476-.36-9.427 0-8.68-.031-9.548-.389-10.958-.82-3.233-1.998-4.98-5.587-8.294l-2.398-2.214-.011-1.711c-.022-3.386-1.003-5.878-3.18-8.071-.788-.794-1.828-1.59-2.568-1.967C59.8-.044 60.318-.016 40.45.006c-10.444.011-18.5.1-19.076.21zm37.493 3.01c2.417.516 4.338 2.063 5.419 4.362l.634 1.348v37.636l-.634 1.349c-1.11 2.36-3.06 3.894-5.565 4.379-.856.166-6.205.214-18.97.17-17.727-.061-17.781-.063-18.837-.499a8.235 8.235 0 01-4.496-4.533c-.41-1.013-.434-1.437-.497-8.413-.065-7.148-.078-7.358-.488-7.799-.567-.61-1.435-.587-2.072.054l-.503.507.068 7.594.067 7.594.53 1.384c1.377 3.603 4.503 6.307 8.037 6.953.79.144 7.165.215 19.077.213 19.651-.003 19.17.024 21.636-1.23 1.626-.827 3.699-2.915 4.52-4.553 1.222-2.441 1.217-2.36 1.22-18.113.002-7.887.077-14.34.168-14.34.273 0 3.132 3.058 3.668 3.924.275.443.715 1.349.979 2.013l.48 1.207.06 9.711c.06 9.35.049 9.711-.308 9.711-.706 0-2.441 1.041-3.07 1.843-1.195 1.52-1.157.944-1.162 17.377-.005 16.704-.075 15.751 1.28 17.369.613.731 2.242 1.65 2.924 1.65.42 0 .431.057.314 1.46-.147 1.739-.71 3.485-1.55 4.805-.543.852-3.631 3.917-8.436 8.374-1.841 1.708-3.745 2.736-5.667 3.06-.966.163-6.212.213-18.042.172l-16.68-.059-1.354-.53c-1.991-.78-2.476-1.162-7.365-5.78-4.634-4.375-5.38-5.286-6.158-7.517-.215-.617-.416-1.731-.447-2.477l-.056-1.356.975-.29c1.254-.375 2.926-2.01 3.276-3.206.181-.618.243-4.66.243-15.926V47.725l-.558-1.076c-.65-1.255-1.905-2.303-3.163-2.642l-.873-.235.001-8.764c.001-5.143.088-9.304.211-10.071.353-2.202 1.388-4.058 3.361-6.03l1.72-1.719.1 4.73c.055 2.601.172 4.876.26 5.054.392.79 1.617.906 2.387.224.322-.285.35-.951.35-8.502 0-4.69.086-8.657.202-9.277.407-2.179 1.82-4.214 3.697-5.323 1.823-1.079 1.606-1.067 20.51-1.081 12.258-.01 17.837.054 18.578.212zM25.514 6.218c-2.367.357-4.653 2.079-5.75 4.33l-.588 1.205-.062 15.397c-.044 10.825.004 15.706.161 16.44.475 2.215 2.385 4.343 4.795 5.343l1.099.456H40.35c14.048 0 15.258-.027 16.201-.359 2.285-.803 3.999-2.453 4.908-4.723l.464-1.157V12.358l-.466-1.164c-.878-2.191-2.396-3.72-4.57-4.605l-1.156-.47-14.582-.03c-8.02-.016-15.056.042-15.635.13zM56.131 9.62c.44.205 1.086.679 1.438 1.052 1.134 1.205 1.258 1.778 1.258 5.822v3.647l-1.448-1.26c-3.805-3.315-7.908-5.262-12.934-6.139-2.917-.51-7.163-.305-10.245.492-3.902 1.009-7.974 3.191-10.636 5.7-.683.645-1.299 1.171-1.367 1.171-.068 0-.124-1.633-.124-3.629 0-4.005.09-4.426 1.221-5.725 1.384-1.588.44-1.505 17.156-1.505 14.076 0 14.925.02 15.68.374zm-17.12 7.123c.05.941.148 1.204.577 1.544.59.468.847.5 1.53.186.623-.286.93-.975.93-2.088v-.883l.75.101c1.147.155 3.912.697 4.075.798.08.05.016.402-.143.784-.641 1.546-.15 2.786 1.103 2.786.775 0 1.164-.356 1.679-1.533l.426-.976 1.787 1.087c.983.598 1.817 1.177 1.853 1.287.037.11-.206.546-.538.967-.706.895-.78 1.742-.205 2.321.673.678 1.592.531 2.494-.4.903-.932.85-.954 2.528 1.065l.97 1.168v8.851c0 9.755.009 9.681-1.258 11.027-.352.373-.999.846-1.438 1.052-.756.353-1.605.373-15.68.373-16.718 0-15.773.083-17.157-1.504-1.241-1.425-1.221-1.25-1.221-10.89v-8.792l.785-1.026c.432-.563 1.053-1.282 1.38-1.598l.596-.574.74.825c.589.657.878.826 1.416.826 1.502 0 1.934-1.471.84-2.862l-.633-.807.484-.375c.583-.452 3.066-1.793 3.32-1.793.099 0 .3.34.445.755.332.942.575 1.253 1.156 1.475.611.235 1.352-.07 1.784-.735.33-.51.33-.585 0-1.522-.19-.543-.296-1.07-.234-1.17.16-.261 4.028-1.038 4.6-.924.11.022.227.55.26 1.174zm.54 6.9c-.371.282-.406.603-.5 4.556l-.1 4.252-.898.478c-4.41 2.345-4.364 8.358.08 10.443 1.138.534 2.847.64 4.122.255 1.268-.383 2.617-1.567 3.285-2.884 1.47-2.895.234-6.528-2.669-7.846l-.8-.365-.062-4.219c-.06-4.156-.068-4.224-.532-4.603-.563-.458-1.374-.487-1.926-.068zm2.402 12.246c1.137.75 1.536 2.525.817 3.632-1.493 2.294-4.915 1.318-4.915-1.403 0-2.13 2.329-3.397 4.098-2.229zM8.41 47.558l.679.685v14.624c0 10.375-.065 14.753-.223 15.065-.475.934-.97 1.134-2.82 1.14-1.649.004-1.781-.029-2.397-.584l-.653-.587-.051-14.658c-.05-14.385-.044-14.67.35-15.32.524-.859.972-1.02 2.867-1.036 1.524-.013 1.588.006 2.248.671zm9.812 10.033c-.527.4-2.741 5.315-2.741 6.085 0 .92.749 1.513 1.91 1.513h.859l-.582 1.604c-.582 1.609-.587 2.017-.028 2.672.401.472 1.67.468 2.095-.005.489-.544 2.352-5.806 2.205-6.225-.268-.759-.717-1.065-1.563-1.065-.459 0-.886-.052-.948-.115-.063-.063.194-.786.57-1.607.747-1.628.75-2.289.009-2.811-.515-.364-1.34-.385-1.786-.046zm43.547 0c-.454.346-2.738 5.358-2.74 6.016-.003.897.593 1.42 1.748 1.532l1.025.099-.489 1.307c-.567 1.519-.61 2.203-.177 2.825.396.57 1.667.623 2.147.089.527-.587 2.36-5.685 2.216-6.163-.243-.806-.7-1.126-1.609-1.126-1.056 0-1.073-.118-.26-1.869.672-1.445.652-2.15-.076-2.664-.515-.364-1.34-.385-1.785-.046zm-24.93 1.044c-11.244 2.363-17.812 13.67-14.326 24.667 1.308 4.127 4.453 8.137 8.112 10.34 1.881 1.134 4.87 2.221 7.029 2.558 2.014.313 5.694.125 7.63-.39 6.777-1.807 12.16-7.458 13.688-14.37.49-2.22.44-6.234-.105-8.457-1.7-6.92-6.764-12.176-13.529-14.041-2.032-.56-6.52-.722-8.498-.306zm7.706 3.239c2.77.748 6.25 2.931 7.918 4.967 1.713 2.09 2.823 4.3 3.47 6.901.453 1.823.463 5.333.021 7.209-.338 1.435-1.08 3.357-1.297 3.357-.069 0-4.885-4.795-10.701-10.657L33.38 62.995l.888-.38c.831-.356 2.85-.93 3.985-1.133 1.002-.18 5.126.077 6.292.392zm-2.517 14.062l11.066 11.15-.741.912c-.408.5-1.06 1.156-1.45 1.456l-.71.544-11.161-11.244L27.87 67.509l1.34-1.362c.738-.748 1.434-1.36 1.547-1.36.113 0 5.185 5.017 11.271 11.15zm-5.083 5.142L47.52 91.735l-.988.433c-1.39.61-4.33 1.193-5.982 1.188-6.488-.02-12.4-4.035-14.816-10.06-1.418-3.539-1.442-8.015-.062-11.731.233-.629.486-1.144.56-1.144.076 0 4.896 4.796 10.713 10.657z" fill="#231F20"/></svg>
